assets/images/icon2.svg

<svg width="18" height="22" viewBox="0 0 18 22" fill="none" xmlns="http://www.w3.org/2000/svg">
<g id="icon">
<g id="icon_2">
<path fill-rule="evenodd" clip-rule="evenodd" d="M9 11C11.7614 11 14 8.53756 14 5.5C14 2.46243 11.7614 0 9 0C6.23858 0 4 2.46243 4 5.5C4 8.53756 6.23858 11 9 11ZM9 8.8C7.34315 8.8 6 7.32254 6 5.5C6 3.67746 7.34315 2.2 9 2.2C10.6569 2.2 12 3.67746 12 5.5C12 7.32254 10.6569 8.8 9 8.8Z" fill="#151618"/>
<path fill-rule="evenodd" clip-rule="evenodd" d="M16.1029 13.1087C15.2604 12.2634 13.957 12.0811 12.9161 12.6987C12.7257 12.8117 12.5581 12.9151 12.4036 13.0105C11.9937 13.2635 11.6755 13.4598 11.2654 13.6283C10.75 13.8401 10.0835 14 9 14C7.92682 14 7.24926 13.8491 6.72609 13.6447C6.26355 13.464 5.89822 13.237 5.41685 12.9378C5.32296 12.8795 5.22448 12.8183 5.12019 12.7543C4.07587 12.1132 2.73464 12.2622 1.86415 13.1419C1.48443 13.5256 1.04036 14.0219 0.6849 14.5626C0.346032 15.0781 0 15.7638 0 16.5V19.0003C0 20.6574 1.34334 22 3 22H15C16.6567 22 18 20.6574 18 19.0003V16.5C18 15.7541 17.6447 15.0592 17.2996 14.5391C16.937 13.9927 16.4852 13.4923 16.1029 13.1087ZM13.9367 14.4187C14.1759 14.2768 14.478 14.3116 14.6863 14.5205C15.0214 14.8568 15.3724 15.2521 15.6331 15.645C15.9113 16.0642 16 16.352 16 16.5V19.0003C16 19.5524 15.5525 20 15 20H3C2.44752 20 2 19.5524 2 19.0003V16.5C2 16.3549 2.08549 16.0729 2.35613 15.6613C2.61017 15.2748 2.95358 14.8844 3.28579 14.5487C3.49412 14.3381 3.81106 14.2974 4.07389 14.4588C4.15661 14.5095 4.24087 14.5621 4.32694 14.6159C4.80938 14.9171 5.34918 15.254 5.99836 15.5076C6.79304 15.8181 7.72419 16 9 16C10.3002 16 11.2313 15.8046 12.0254 15.4783C12.6006 15.242 13.1079 14.9282 13.5558 14.6512C13.6879 14.5695 13.8148 14.491 13.9367 14.4187Z" fill="#151618"/>
</g>
</g>
</svg>

<svg width="18" height="22" fill="none" xmlns="http://www.w3.org/2000/svg"><path d="M9 11c2.761 0 5-2.462 5-5.5S11.761 0 9 0 4 2.462 4 5.5 6.239 11 9 11Zm0-2.2c-1.657 0-3-1.477-3-3.3 0-1.823 1.343-3.3 3-3.3s3 1.477 3 3.3c0 1.823-1.343 3.3-3 3.3Zm7.103 4.309a2.608 2.608 0 0 0-3.187-.41c-.19.113-.358.216-.512.312-.41.253-.729.449-1.139.617C10.75 13.84 10.084 14 9 14c-1.073 0-1.75-.15-2.274-.355-.462-.181-.828-.408-1.31-.707-.093-.059-.192-.12-.296-.184a2.628 2.628 0 0 0-3.256.388c-.38.384-.824.88-1.18 1.42C.347 15.079 0 15.765 0 16.5V19a3 3 0 0 0 3 3h12a3 3 0 0 0 3-3v-2.5c0-.746-.355-1.44-.7-1.96a9.699 9.699 0 0 0-1.197-1.431Zm-2.166 1.31a.608.608 0 0 1 .75.101c.334.337.685.732.946 1.125.278.42.367.707.367.855V19a1 1 0 0 1-1 1H3a1 1 0 0 1-1-1v-2.5c0-.145.085-.427.356-.839.254-.386.598-.777.93-1.112a.629.629 0 0 1 .788-.09c.083.05.167.103.253.157.482.301 1.022.638 1.671.892.795.31 1.726.492 3.002.492 1.3 0 2.231-.195 3.025-.522.576-.236 1.083-.55 1.53-.827.133-.082.26-.16.382-.232Z" fill-rule="evenodd" clip-rule="evenodd" fill="#151618"/></svg>
